assets/images/car-with-key.svg

<svg xmlns="http://www.w3.org/2000/svg" viewBox="0 0 20 20"><path fill-rule="evenodd" d="M1 8.77033L1 16C1 16.5523 1.44772 17 2 17H4C4.55229 17 5 16.5523 5 16V14H8.24446L8.25 14H12.9013C13.4201 13.1033 14.3896 12.5 15.5 12.5H17.4338C17.9959 12.5 18.5361 12.6573 19 12.9413V8.77033C19 8.51115 18.9748 8.25318 18.9251 8H19.5C19.7761 8 20 7.77614 20 7.5V7C20 6.44772 19.5523 6 19 6H18.2L17.3445 3.86125C17.126 3.31503 16.6793 2.89313 16.1088 2.74946C14.9327 2.45325 12.693 2 10 2C7.30705 2 5.06735 2.45325 3.89118 2.74946C3.3207 2.89313 2.87399 3.31503 2.6555 3.86125L1.8 6H1C0.447715 6 0 6.44772 0 7V7.5C0 7.77614 0.223858 8 0.5 8H1.07488C1.02519 8.25318 1 8.51115 1 8.77033ZM3.67483 6.78041L4.37024 5.11142C4.45442 4.9094 4.60277 4.74213 4.80741 4.66452C5.40912 4.43634 6.95746 4 9.99962 4C13.0417 4 14.5905 4.43634 15.1924 4.66452C15.3972 4.74212 15.5456 4.90945 15.6298 5.11155L16.3251 6.78021C16.4243 7.01821 16.3222 7.2834 16.0765 7.36152C15.3414 7.59523 13.555 8 9.99913 8C6.44339 8 4.65788 7.59527 3.92325 7.36156C3.67765 7.28342 3.5757 7.01832 3.67483 6.78041ZM13 10.2808C13 10.1158 13.1123 9.97192 13.2724 9.9319L16.3787 9.15531C16.6943 9.07642 17 9.3151 17 9.64038V9.99999C17 10.5523 16.5523 11 16 11H13.7192C13.322 11 13 10.678 13 10.2808ZM3 9.64038C3 9.3151 3.30569 9.07642 3.62127 9.15531L6.72761 9.9319C6.88769 9.97192 7 10.1158 7 10.2808C7 10.678 6.67799 11 6.28078 11H4C3.44772 11 3 10.5523 3 9.99999V9.64038ZM15.5 14.5C14.9477 14.5 14.5 14.9477 14.5 15.5V16H8.25C8.11193 16 8 16.1119 8 16.25V16.8662C8 16.9498 8.04178 17.0279 8.11133 17.0742L9.24808 17.8321C9.41234 17.9416 9.60535 18 9.80278 18H14.5V18.5C14.5 19.0523 14.9477 19.5 15.5 19.5H17.4338C17.7851 19.5 18.1106 19.3157 18.2913 19.0145L18.8826 18.029C19.2626 17.3956 19.2626 16.6044 18.8826 15.971L18.2913 14.9855C18.1106 14.6843 17.7851 14.5 17.4338 14.5H15.5ZM18 17C18 17.2761 17.7761 17.5 17.5 17.5C17.2239 17.5 17 17.2761 17 17C17 16.7239 17.2239 16.5 17.5 16.5C17.7761 16.5 18 16.7239 18 17Z" clip-rule="evenodd"/></svg>

<svg xmlns="http://www.w3.org/2000/svg" viewBox="0 0 20 20"><path fill-rule="evenodd" d="M1 8.77V16a1 1 0 0 0 1 1h2a1 1 0 0 0 1-1v-2h7.901a3 3 0 0 1 2.599-1.5h1.934c.562 0 1.102.157 1.566.441v-4.17A4 4 0 0 0 18.925 8h.575a.5.5 0 0 0 .5-.5V7a1 1 0 0 0-1-1h-.8l-.855-2.139c-.219-.546-.666-.968-1.236-1.112A25.6 25.6 0 0 0 10 2c-2.693 0-4.933.453-6.109.75-.57.143-1.017.565-1.235 1.111L1.8 6H1a1 1 0 0 0-1 1v.5a.5.5 0 0 0 .5.5h.575A4 4 0 0 0 1 8.77m2.675-1.99.695-1.669a.8.8 0 0 1 .437-.446C5.41 4.436 6.957 4 10 4s4.59.436 5.192.665a.8.8 0 0 1 .438.447l.695 1.668c.1.238-.003.503-.248.582-.736.233-2.522.638-6.078.638s-5.341-.405-6.076-.638c-.245-.079-.347-.344-.248-.582M13 10.28a.36.36 0 0 1 .272-.348l3.107-.777A.5.5 0 0 1 17 9.64V10a1 1 0 0 1-1 1h-2.28a.72.72 0 0 1-.72-.72M3 9.64a.5.5 0 0 1 .621-.485l3.107.777A.36.36 0 0 1 7 10.28a.72.72 0 0 1-.72.719H4a1 1 0 0 1-1-1zm12.5 4.86a1 1 0 0 0-1 1v.5H8.25a.25.25 0 0 0-.25.25v.616a.25.25 0 0 0 .111.208l1.137.758a1 1 0 0 0 .555.168H14.5v.5a1 1 0 0 0 1 1h1.934a1 1 0 0 0 .857-.485l.592-.986a2 2 0 0 0 0-2.058l-.592-.985a1 1 0 0 0-.857-.486zM18 17a.5.5 0 1 1-1 0 .5.5 0 0 1 1 0" clip-rule="evenodd"/></svg>
